img/icons/events-icon.svg

<svg width="55" height="55" viewBox="0 0 55 55" fill="none" xmlns="http://www.w3.org/2000/svg">
<path d="M45.2593 53.9622H9.73828C6.77193 53.9622 4.36719 51.5574 4.36719 48.5911V13.0703C4.36719 10.104 6.77193 7.69922 9.73828 7.69922H45.259C48.2254 7.69922 50.6301 10.104 50.6301 13.0703V48.5911C50.6304 51.5574 48.2256 53.9622 45.2593 53.9622Z" fill="#F6F7F9"/>
<path d="M12.9609 53.963H9.73828C6.77344 53.963 4.36719 51.5567 4.36719 48.5919V13.0698C4.36719 10.105 6.77344 7.69873 9.73828 7.69873H12.9609C9.99609 7.69873 7.58984 10.105 7.58984 13.0698V48.5921C7.58984 51.5567 9.99609 53.963 12.9609 53.963Z" fill="white"/>
<path d="M50.6328 13.0698V48.5921C50.6328 51.5569 48.2266 53.9632 45.2617 53.9632H42.0391C45.0039 53.9632 47.4102 51.5569 47.4102 48.5921V13.0698C47.4102 10.105 45.0039 7.69873 42.0391 7.69873H45.2617C48.2266 7.69873 50.6328 10.105 50.6328 13.0698Z" fill="#E3E8F2"/>
<path d="M14.125 14.3594C12.9384 14.3594 11.9766 13.3975 11.9766 12.2109V3.1875C11.9766 2.00092 12.9384 1.03906 14.125 1.03906C15.3116 1.03906 16.2734 2.00092 16.2734 3.1875V12.2109C16.2734 13.3975 15.3116 14.3594 14.125 14.3594Z" fill="white"/>
<path d="M40.873 14.3594C39.6865 14.3594 38.7246 13.3975 38.7246 12.2109V3.1875C38.7246 2.00092 39.6865 1.03906 40.873 1.03906C42.0596 1.03906 43.0215 2.00092 43.0215 3.1875V12.2109C43.0215 13.3975 42.0596 14.3594 40.873 14.3594Z" fill="white"/>
<path d="M29.3039 20.1612L31.5439 24.6998C31.8371 25.2938 32.4039 25.7057 33.0594 25.8008L38.068 26.5287C39.7191 26.7687 40.3782 28.7975 39.1835 29.9621L35.5591 33.495C35.0847 33.9574 34.8681 34.6238 34.9801 35.2767L35.8356 40.2652C36.1177 41.9096 34.3916 43.1634 32.915 42.3872L28.4351 40.0319C27.8488 39.7236 27.1482 39.7236 26.5616 40.0319L22.0817 42.3872C20.6051 43.1637 18.879 41.9096 19.1611 40.2652L20.0166 35.2767C20.1286 34.6238 19.9122 33.9576 19.4376 33.495L15.8132 29.9621C14.6185 28.7977 15.2778 26.7687 16.9287 26.5287L21.9373 25.8008C22.593 25.7057 23.1598 25.2938 23.4528 24.6998L25.6928 20.1612C26.4321 18.665 28.5655 18.665 29.3039 20.1612Z" fill="#045AFD"/>
<path d="M29.1097 19.8482C29.0367 19.9449 28.9722 20.048 28.9164 20.1619L26.6755 24.6994C26.3833 25.2945 25.8162 25.7048 25.1609 25.8015L20.1507 26.5277C18.5007 26.7683 17.8412 28.7964 19.0357 29.9609L22.6601 33.4951C23.1349 33.957 23.3519 34.623 23.2402 35.2761L22.383 40.2648C22.2691 40.933 22.4861 41.5367 22.8835 41.9664L22.0822 42.3875C20.604 43.163 18.8789 41.9084 19.1603 40.2648L20.0175 35.2761C20.1292 34.623 19.9123 33.957 19.4374 33.4951L15.813 29.9609C14.6185 28.7964 15.2781 26.7683 16.9281 26.5277L21.9382 25.8015C22.5935 25.7048 23.1607 25.2945 23.4529 24.6994L25.6937 20.1619C26.3769 18.7783 28.2503 18.673 29.1097 19.8482Z" fill="#045AFD"/>
<path d="M35.5609 33.4951C35.0861 33.957 34.8691 34.623 34.9809 35.2761L35.8381 40.2648C36.1195 41.9084 34.3943 43.163 32.9162 42.3875L32.1148 41.9664C32.5123 41.5367 32.7293 40.933 32.6154 40.2648L31.7582 35.2761C31.6465 34.623 31.8635 33.957 32.3383 33.4951L35.9627 29.9609C37.1572 28.7964 36.4977 26.7683 34.8477 26.5277L29.8375 25.8015C29.1822 25.7048 28.615 25.2945 28.3229 24.6994L26.082 20.1619C26.0262 20.048 25.9617 19.9449 25.8887 19.8482C26.748 18.673 28.6215 18.7783 29.3047 20.1619L31.5455 24.6994C31.8377 25.2945 32.4049 25.7048 33.0602 25.8015L38.0703 26.5277C39.7203 26.7683 40.3799 28.7964 39.1853 29.9609L35.5609 33.4951Z" fill="#045AFD"/>
<path d="M45.2605 6.83941H43.8812V3.1875C43.8812 1.52891 42.532 0.179688 40.8734 0.179688C39.2148 0.179688 37.8656 1.52891 37.8656 3.1875V6.83963H17.1332V3.1875C17.1332 1.52891 15.784 0.179688 14.1254 0.179688C12.4668 0.179688 11.1176 1.52891 11.1176 3.1875V6.83963H9.73828C6.30293 6.83963 3.50781 9.63453 3.50781 13.0701V48.5902C3.50781 52.0258 6.30293 54.8207 9.73828 54.8207H45.2605C48.6959 54.8207 51.491 52.0258 51.491 48.5902V13.0699C51.491 9.63453 48.6959 6.83941 45.2605 6.83941ZM39.5844 3.1875C39.5844 2.47658 40.1625 1.89844 40.8734 1.89844C41.5844 1.89844 42.1625 2.47658 42.1625 3.1875V12.2109C42.1625 12.9219 41.5844 13.5 40.8734 13.5C40.1625 13.5 39.5844 12.9219 39.5844 12.2109V3.1875ZM12.8363 3.1875C12.8363 2.47658 13.4145 1.89844 14.1254 1.89844C14.8363 1.89844 15.4145 2.47658 15.4145 3.1875V12.2109C15.4145 12.9219 14.8363 13.5 14.1254 13.5C13.4145 13.5 12.8363 12.9219 12.8363 12.2109V3.1875ZM49.7723 48.59C49.7723 51.0779 47.7482 53.1017 45.2605 53.1017H9.73828C7.25061 53.1017 5.22656 51.0779 5.22656 48.59V13.0699C5.22656 10.582 7.25061 8.55816 9.73828 8.55816H11.1176V12.2107C11.1176 13.8693 12.4668 15.2185 14.1254 15.2185C15.784 15.2185 17.1332 13.8693 17.1332 12.2107V8.55816H37.8656V12.2107C37.8656 13.8693 39.2148 15.2185 40.8734 15.2185C42.532 15.2185 43.8812 13.8693 43.8812 12.2107V8.55816H45.2605C47.7482 8.55816 49.7723 10.582 49.7723 13.0699V48.59Z" fill="#1E335B"/>
<path d="M35.8271 35.1312C35.763 34.7567 35.887 34.375 36.159 34.1101L39.7832 30.5772C41.4873 28.916 40.5457 26.0201 38.1914 25.6779L33.1828 24.95C32.807 24.8954 32.4822 24.6595 32.3141 24.319L30.074 19.7806C29.0206 17.6462 25.9756 17.6472 24.9227 19.7806L22.6827 24.3192C22.5147 24.6597 22.1899 24.8958 21.8141 24.9504L16.8054 25.6783C14.4503 26.0206 13.5099 28.9171 15.2137 30.5776L18.8381 34.1105C19.1099 34.3754 19.2338 34.7572 19.1698 35.1314L18.3143 40.1199C17.9123 42.4649 20.3753 44.255 22.4816 43.1479L26.9617 40.7926C27.2978 40.616 27.6991 40.616 28.0351 40.7926L32.5152 43.1479C34.6181 44.2535 37.0848 42.4653 36.6826 40.1199L35.8271 35.1312ZM33.3149 41.6262L28.8348 39.2708C27.9977 38.8308 26.9985 38.8308 26.1619 39.2708L21.6817 41.6262C20.8348 42.0717 19.8459 41.3552 20.0081 40.4101L20.8636 35.4215C21.0232 34.4893 20.7145 33.5388 20.0373 32.8792L16.4131 29.3463C15.728 28.6782 16.1033 27.5165 17.0525 27.3788L22.0612 26.6509C22.9966 26.5149 23.8053 25.9277 24.2238 25.0797L26.4637 20.5412C26.8874 19.6827 28.1082 19.6814 28.5325 20.5412L30.7724 25.08C31.1909 25.9277 31.9996 26.5151 32.935 26.6511L37.9437 27.379C38.8909 27.5165 39.2695 28.6771 38.5831 29.3465L34.9591 32.8792C34.2819 33.5388 33.973 34.4893 34.1326 35.4217L34.9881 40.4101C35.1505 41.3533 34.1635 42.0726 33.3149 41.6262Z" fill="#1E335B"/>
<path d="M30.4814 28.6027L26.4722 32.4884L25.421 31.3001C25.1062 30.9447 24.5633 30.9112 24.208 31.2257C23.8526 31.5403 23.8191 32.0834 24.1336 32.4387L25.7808 34.3008C26.1048 34.6671 26.6701 34.6899 27.0226 34.3485L31.6777 29.8368C32.0184 29.5065 32.027 28.9623 31.6966 28.6216C31.3664 28.2809 30.8224 28.2723 30.4814 28.6027Z" fill="white"/>
<path d="M44.2891 47.2666H37.8438C37.3692 47.2666 36.9844 47.6514 36.9844 48.126C36.9844 48.6006 37.3692 48.9854 37.8438 48.9854H44.2891C44.7637 48.9854 45.1484 48.6006 45.1484 48.126C45.1484 47.6514 44.7634 47.2666 44.2891 47.2666Z" fill="#1E335B"/>
<path d="M34.6211 47.2666H33.1621C32.6875 47.2666 32.3027 47.6514 32.3027 48.126C32.3027 48.6006 32.6875 48.9854 33.1621 48.9854H34.6211C35.0957 48.9854 35.4805 48.6006 35.4805 48.126C35.4805 47.6514 35.0955 47.2666 34.6211 47.2666Z" fill="#1E335B"/>
</svg>

<svg width="55" height="55" fill="none" xmlns="http://www.w3.org/2000/svg"><path d="M45.26 53.962H9.737a5.371 5.371 0 01-5.37-5.37V13.07a5.371 5.371 0 015.37-5.37H45.26a5.371 5.371 0 015.371 5.37v35.521a5.37 5.37 0 01-5.37 5.371z" fill="#F6F7F9"/><path d="M12.96 53.963H9.739a5.373 5.373 0 01-5.37-5.371V13.07a5.373 5.373 0 015.37-5.371h3.223a5.373 5.373 0 00-5.371 5.37v35.523a5.373 5.373 0 005.37 5.371z" fill="#fff"/><path d="M50.633 13.07v35.522a5.373 5.373 0 01-5.371 5.371h-3.223a5.373 5.373 0 005.371-5.37V13.07a5.373 5.373 0 00-5.37-5.371h3.222a5.373 5.373 0 015.37 5.37z" fill="#E3E8F2"/><path d="M14.125 14.36a2.148 2.148 0 01-2.148-2.15V3.188a2.148 2.148 0 114.296 0v9.024a2.148 2.148 0 01-2.148 2.148zM40.873 14.36a2.148 2.148 0 01-2.148-2.15V3.188a2.148 2.148 0 114.297 0v9.024a2.148 2.148 0 01-2.149 2.148z" fill="#fff"/><path d="M29.304 20.161l2.24 4.539c.293.594.86 1.006 1.515 1.1l5.009.729c1.651.24 2.31 2.268 1.116 3.433l-3.625 3.533a2.013 2.013 0 00-.579 1.782l.856 4.988c.282 1.645-1.444 2.898-2.921 2.122l-4.48-2.355a2.013 2.013 0 00-1.873 0l-4.48 2.355c-1.477.777-3.203-.477-2.92-2.122l.855-4.988a2.013 2.013 0 00-.58-1.782l-3.624-3.533c-1.195-1.164-.535-3.193 1.116-3.433l5.008-.728a2.012 2.012 0 001.516-1.101l2.24-4.539c.74-1.496 2.872-1.496 3.61 0z" fill="#045AFD"/><path d="M29.11 19.848c-.073.097-.138.2-.194.314l-2.24 4.537a2.012 2.012 0 01-1.515 1.102l-5.01.727c-1.65.24-2.31 2.268-1.115 3.433l3.624 3.534c.475.462.692 1.128.58 1.781l-.857 4.989a1.982 1.982 0 00.5 1.701l-.8.422c-1.479.775-3.204-.48-2.923-2.123l.857-4.989a2.011 2.011 0 00-.58-1.78l-3.624-3.535c-1.195-1.165-.535-3.193 1.115-3.433l5.01-.726a2.012 2.012 0 001.515-1.103l2.24-4.537c.684-1.384 2.557-1.489 3.417-.314z" fill="#045AFD"/><path d="M35.56 33.495a2.011 2.011 0 00-.58 1.781l.858 4.989c.282 1.643-1.444 2.898-2.922 2.123l-.801-.422c.397-.43.614-1.033.5-1.701l-.857-4.989a2.011 2.011 0 01.58-1.78l3.625-3.535c1.194-1.165.535-3.193-1.115-3.433l-5.01-.726a2.012 2.012 0 01-1.515-1.103l-2.241-4.537a1.917 1.917 0 00-.193-.314c.859-1.175 2.733-1.07 3.416.314l2.24 4.537c.293.595.86 1.006 1.515 1.102l5.01.727c1.65.24 2.31 2.268 1.115 3.433l-3.624 3.534z" fill="#045AFD"/><path d="M45.26 6.84h-1.379V3.187A3.011 3.011 0 0040.873.18a3.011 3.011 0 00-3.007 3.007V6.84H17.133V3.188A3.011 3.011 0 0014.125.18a3.011 3.011 0 00-3.007 3.007V6.84h-1.38a6.238 6.238 0 00-6.23 6.23v35.52a6.238 6.238 0 006.23 6.23h35.523a6.238 6.238 0 006.23-6.23V13.07a6.238 6.238 0 00-6.23-6.23zm-5.676-3.652a1.29 1.29 0 012.578 0v9.023a1.29 1.29 0 01-2.578 0V3.187zm-26.748 0a1.29 1.29 0 012.578 0v9.023a1.29 1.29 0 01-1.289 1.289 1.29 1.29 0 01-1.289-1.29V3.188zM49.772 48.59a4.517 4.517 0 01-4.511 4.512H9.737a4.517 4.517 0 01-4.511-4.512V13.07a4.517 4.517 0 014.511-4.512h1.38v3.653a3.011 3.011 0 003.007 3.008 3.011 3.011 0 003.008-3.008V8.558h20.733v3.653a3.011 3.011 0 003.007 3.008 3.011 3.011 0 003.008-3.008V8.558h1.38a4.517 4.517 0 014.511 4.512v35.52z" fill="#1E335B"/><path d="M35.827 35.131c-.064-.374.06-.756.332-1.02l3.624-3.534c1.704-1.661.763-4.557-1.592-4.9l-5.008-.727c-.376-.055-.7-.29-.869-.631l-2.24-4.538c-1.053-2.135-4.098-2.134-5.151 0l-2.24 4.538c-.168.34-.493.577-.869.631l-5.009.728c-2.355.343-3.295 3.24-1.591 4.9l3.624 3.533c.272.264.396.646.332 1.02l-.856 4.989c-.402 2.345 2.061 4.135 4.168 3.028l4.48-2.355a1.154 1.154 0 011.073 0l4.48 2.355c2.103 1.105 4.57-.683 4.168-3.028l-.856-4.989zm-2.512 6.495l-4.48-2.355a2.871 2.871 0 00-2.673 0l-4.48 2.355a1.152 1.152 0 01-1.674-1.216l.856-4.988a2.872 2.872 0 00-.827-2.543l-3.624-3.533a1.152 1.152 0 01.64-1.967l5.008-.728a2.872 2.872 0 002.163-1.571l2.24-4.539a1.152 1.152 0 012.069 0l2.24 4.539a2.873 2.873 0 002.162 1.571l5.009.728a1.153 1.153 0 01.64 1.967l-3.625 3.533a2.872 2.872 0 00-.826 2.543l.855 4.988a1.152 1.152 0 01-1.673 1.216z" fill="#1E335B"/><path d="M30.481 28.603l-4.009 3.885-1.051-1.188a.86.86 0 00-1.287 1.139L25.78 34.3a.86.86 0 001.242.047l4.655-4.511a.86.86 0 00-1.197-1.234z" fill="#fff"/><path d="M44.29 47.267h-6.446a.86.86 0 000 1.718h6.445a.86.86 0 000-1.718zM34.621 47.267h-1.459a.86.86 0 000 1.718h1.46a.86.86 0 000-1.718z" fill="#1E335B"/></svg>
